X:1
T:He Is Near
T:He Is Near
T:George Coles Stebbins, circa 1896
T:Horatius Bonar (1808-1889)
T:Public Domain Courtesy of the Cyber Hymnal™
C:George Coles Stebbins, circa 1896
Z:Public Domain
Z:Courtesy of the Cyber Hymnal™
%%score ( 1 2 ) 3
L:1/8
Q:1/4=90
M:3/4
K:G
V:1 treble 
V:2 treble 
V:3 bass 
V:1
 [GB][G^A] [GB] | [Gc]3 [GB] [FA][FB] | [DG]3 [DG] [CF][B,G] | [CA]3 [CE] [CF][CD] | %4
w: 1.~I know not|when the Lord will|come, Or at what|hour He may ap-|
w: 2.~I know not|what of time re-|mains, To run its|course, in this low|
w: 3.~I know not|what is yet to|run Of spring or|sum- mer, green or|
w: 4.~The cen- tu-|ries have come and|gone, Dark cen- tu-|ries of ab- sence|
w: 5.~I do not|think it can be|long, Till in His|glo- ry He ap-|
 [B,G]3 [GB] [G^A][GB] | [Gc]3 [GB] [FA][FB] | [DG]3 [DB] [Ed][Ec] | [EG][_EA] [DB]3 [CA] | %8
w: pear, Whe- ther at|mid- night or at|morn, Or at what|sea- son of the|
w: sphere, Or what a-|waits of calm or|storm, Of joy or|grief, or hope or|
w: sear, Of death or|life, of pain or|peace, Of shade or|shine, of song or|
w: drear; I dare not|chide the long de-|lay, Nor ask when|I His voice shall|
w: pear; And yet I|dare not name the|day, Nor fix the|sol- emn ad- vent|
 [B,G]3 ||"^Refrain" [GB][GB]>[FA] | [FA]3 [Fd] [Ge]>[Gd] | [Gd]3 [DG] [DF][DG] | %12
w: year.||||
w: fear.||||
w: tear.|I on- ly|know that He is|near, And that His|
w: hear.||||
w: year.||||
 [Gc][GB] [GB]3 [GA] | [FA]3 [GB] [GB]>[FA] | [FA]3 [Fd] [Ge]>[Gd] | [Gd]3 [=FG] [FA][FG] | %16
w: ||||
w: ||||
w: voice I soon shall|hear; I on- ly|know that He is|near, And that His|
w: ||||
w: ||||
 [EG][Gc] [GB]3 [FA] | G3 |] %18
w: ||
w: ||
w: voice I soon shall|hear;|
w: ||
w: ||
V:2
 x3 | x6 | x6 | x6 | x6 | x6 | x6 | x6 | x3 || x3 | x6 | x6 | x6 | x6 | x6 | x6 | x6 | G3 |] %18
V:3
 [G,D][G,^C] [G,D] | [G,E]3 [G,D] [D,C][D,D] | [G,,B,]3 [G,,B,] [D,A,][D,G,] | %3
 [D,F,]3 [D,G,] [D,A,][D,F,] | [G,,G,]3 [G,D] [G,^C][G,D] | [G,E]3 [G,D] [D,C][D,D] | %6
 [G,,B,]3 [G,,G,] [C,G,][C,G,] | [C,G,][C,G,] [D,G,]3 [D,F,] | [G,,G,]3 || [G,D][D,D]>[D,D] | %10
 [D,D]3 [D,C] [G,C]>[G,B,] | [G,B,]3 [G,B,] [A,C][G,B,] | [C,E][D,D] [E,^C]3 [A,,C] | %13
 [D,D]3 [G,D] [D,D]>[D,D] | [D,D]3 [D,C] [G,C]>[G,B,] | [G,B,]3 [G,B,] [G,D][B,,D] | %16
 [C,C][C,E] [D,D]3 [D,C] | [G,,G,B,]3 |] %18

